Newaita-dark/actions/symbolic/document-new-symbolic.svg

<svg height="16" viewBox="0 0 16 16" width="16" xmlns="http://www.w3.org/2000/svg"><g fill="#e0e0e0"><path d="m12.570312 3.101562h-10.585937c-.363281 0-.660156-.296874-.660156-.660156v-.664062c0-.363282.296875-.660156.660156-.660156h10.585937c.363282 0 .660157.296874.660157.660156v.664062c0 .363282-.296875.660156-.660157.660156zm0 0"/><path d="m11.246094 9.054688c-.367188 0-.660156.296874-.660156.664062v1.320312h-1.324219c-.367188 0-.660157.296876-.660157.664063v.660156c0 .367188.292969.660157.660157.660157h1.324219v1.324218c0 .367188.292968.660156.660156.660156h.660156c.367188 0 .664062-.292968.664062-.660156v-1.324218h1.320313c.367187 0 .664063-.292969.664063-.660157v-.660156c0-.367187-.296876-.664063-.664063-.664063h-1.320313v-1.320312c0-.367188-.296874-.664062-.664062-.664062zm0 0"/><path d="m3.308594 1.777344v12.570312c0 .367188-.296875.660156-.664063.660156h-.660156c-.363281 0-.660156-.292968-.660156-.660156v-12.570312c0-.363282.296875-.660156.660156-.660156h.660156c.367188 0 .664063.296874.664063.660156zm0 0"/><path d="m7.277344 15.007812h-4.960938v-1.984374h4.960938zm0 0"/><path d="m13.230469 2.109375v5.625h-1.984375v-5.625zm0 0"/></g></svg>

<?xml version="1.0" encoding="UTF-8"?>
<svg xmlns="http://www.w3.org/2000/svg" xmlns:xlink="http://www.w3.org/1999/xlink" width="16px" height="16px" viewBox="0 0 16 16" version="1.1">
<g id="surface1">
<path style=" stroke:none;fill-rule:nonzero;fill:rgb(87.843138%,87.843138%,87.843138%);fill-opacity:1;" d="M 12.570312 3.101562 L 1.984375 3.101562 C 1.621094 3.101562 1.324219 2.804688 1.324219 2.441406 L 1.324219 1.777344 C 1.324219 1.414062 1.621094 1.117188 1.984375 1.117188 L 12.570312 1.117188 C 12.933594 1.117188 13.230469 1.414062 13.230469 1.777344 L 13.230469 2.441406 C 13.230469 2.804688 12.933594 3.101562 12.570312 3.101562 Z M 12.570312 3.101562 "/>
<path style=" stroke:none;fill-rule:nonzero;fill:rgb(87.843138%,87.843138%,87.843138%);fill-opacity:1;" d="M 11.246094 9.054688 C 10.878906 9.054688 10.585938 9.351562 10.585938 9.71875 L 10.585938 11.039062 L 9.261719 11.039062 C 8.894531 11.039062 8.601562 11.335938 8.601562 11.703125 L 8.601562 12.363281 C 8.601562 12.730469 8.894531 13.023438 9.261719 13.023438 L 10.585938 13.023438 L 10.585938 14.347656 C 10.585938 14.714844 10.878906 15.007812 11.246094 15.007812 L 11.90625 15.007812 C 12.273438 15.007812 12.570312 14.714844 12.570312 14.347656 L 12.570312 13.023438 L 13.890625 13.023438 C 14.257812 13.023438 14.554688 12.730469 14.554688 12.363281 L 14.554688 11.703125 C 14.554688 11.335938 14.257812 11.039062 13.890625 11.039062 L 12.570312 11.039062 L 12.570312 9.71875 C 12.570312 9.351562 12.273438 9.054688 11.90625 9.054688 Z M 11.246094 9.054688 "/>
<path style=" stroke:none;fill-rule:nonzero;fill:rgb(87.843138%,87.843138%,87.843138%);fill-opacity:1;" d="M 3.308594 1.777344 L 3.308594 14.347656 C 3.308594 14.714844 3.011719 15.007812 2.644531 15.007812 L 1.984375 15.007812 C 1.621094 15.007812 1.324219 14.714844 1.324219 14.347656 L 1.324219 1.777344 C 1.324219 1.414062 1.621094 1.117188 1.984375 1.117188 L 2.644531 1.117188 C 3.011719 1.117188 3.308594 1.414062 3.308594 1.777344 Z M 3.308594 1.777344 "/>
<path style=" stroke:none;fill-rule:nonzero;fill:rgb(87.843138%,87.843138%,87.843138%);fill-opacity:1;" d="M 7.277344 15.007812 L 2.316406 15.007812 L 2.316406 13.023438 L 7.277344 13.023438 Z M 7.277344 15.007812 "/>
<path style=" stroke:none;fill-rule:nonzero;fill:rgb(87.843138%,87.843138%,87.843138%);fill-opacity:1;" d="M 13.230469 2.109375 L 13.230469 7.734375 L 11.246094 7.734375 L 11.246094 2.109375 Z M 13.230469 2.109375 "/>
</g>
</svg>
